X:172
T:Belle Assembl\'ee. THO5.172, La
M:6/8
L:1/8
B:Thompson's Complete Collection of 200 Favourite Dances Vol.5
F:https://www.libraryofdance.org/manuals/1780c-Thompson-Compleat-5.pdf
Z:vmp. Peter Dunk 2024
Q:3/8=100
K:Bb
fgf fdB|efe ecA|Bcd F2B|(e2d) (d2c)|
fgf fdB|efe ecA|Bcd F2B|{d}cBA B3:|
|:FGF FAB|cdc cAF|BcB Bde|fgf fdB|
gag gba|bag f3|fgf fbf|edc B3:|
W:
W:Lead down one Couple, cast up & turn ./.
W:the 2nd Couple leas through the top, cast off & turn ./:
W:1st 2nd & 3rd Couples Promenade quite round :/.
W:cross over 1 Couple & turn :/:

